X: 207
T: The Tongadale Reel
C:Farquhar McDonald (1995)
M:4/4
F:http://blackrosetheband.googlepages.com/ABCTUNES.ABC May 2009
R:Reel
K:Am
AB |\
"Am"cBcB AEAB | "F"cBcB AFAc |\
[1,3 "G"BGDG EDEG | DEGB- "Em"B2AB :|\
[2,4 "G"BGDG EDEG | "Em"EDCB, "Am"A,2 :|
|: A,B, |\
"Am"CA,EA, FA,EA, | GA,EA, FA,DC |\
[1,3 "G"B,G,DG, EG,DG, | F2ED DC :|\
[2,4 "G"B,G,DG, EG,CB, | "Em"CA,A,G, "Am"A,2- :|

%%sep 1 1 500

